icon/pk/quote.svg

<svg viewBox="0 0 48 48" fill="none" xmlns="http://www.w3.org/2000/svg" height="1em" width="1em">
  <path fill-rule="evenodd" clip-rule="evenodd" d="M18.8533 9.11587C11.3227 13.9521 7.13913 19.5811 6.30256 26.0028C5.00021 35.9999 13.9404 40.8932 18.4703 36.4966C23.0002 32.1 20.2848 26.5195 17.0047 24.9941C13.7246 23.4686 11.7187 23.9999 12.0686 21.9614C12.4185 19.923 17.0851 14.2712 21.1849 11.6391C21.4569 11.4078 21.5604 10.959 21.2985 10.6185C21.1262 10.3946 20.7883 9.95545 20.2848 9.30102C19.8445 8.72875 19.4227 8.75017 18.8533 9.11587Z" fill="black"/>
  <path fill-rule="evenodd" clip-rule="evenodd" d="M38.6789 9.11587C31.1484 13.9521 26.9648 19.5811 26.1282 26.0028C24.8259 35.9999 33.7661 40.8932 38.296 36.4966C42.8259 32.1 40.1105 26.5195 36.8304 24.9941C33.5503 23.4686 31.5443 23.9999 31.8943 21.9614C32.2442 19.923 36.9108 14.2712 41.0106 11.6391C41.2826 11.4078 41.3861 10.959 41.1241 10.6185C40.9519 10.3946 40.614 9.95545 40.1105 9.30102C39.6702 8.72875 39.2484 8.75017 38.6789 9.11587Z" fill="black"/>
</svg>

<svg width="48" height="48" fill="none" xmlns="http://www.w3.org/2000/svg"><path fill-rule="evenodd" clip-rule="evenodd" d="M18.853 9.116C11.323 13.952 7.14 19.58 6.303 26.003 5 36 13.94 40.893 18.47 36.497 23 32.1 20.285 26.52 17.005 24.994c-3.28-1.525-5.286-.994-4.936-3.033.35-2.038 5.016-7.69 9.116-10.322a.749.749 0 0 0 .114-1.02L20.285 9.3c-.44-.572-.862-.55-1.432-.185ZM38.679 9.116c-7.53 4.836-11.714 10.465-12.55 16.887-1.303 9.997 7.637 14.89 12.167 10.494 4.53-4.397 1.815-9.977-1.466-11.503-3.28-1.525-5.286-.994-4.936-3.033.35-2.038 5.017-7.69 9.117-10.322a.749.749 0 0 0 .113-1.02L40.11 9.3c-.44-.572-.862-.55-1.431-.185Z" fill="#000"/></svg>
